-----BEGIN PGP MESSAGE-----

hQIMA2vLMnNSlfPNAQ/6AgRnqSwdAnMbpP2wGDIiqXE2wdgeG8iDks9hCnPqbW2E
o7GG+J7A83HS9KxZdMA73UlIjEryxnh5OycI4vy9MW0alqAoAfvgKH1COM5ejPfp
40Z7dMns/GEgijtDfTJtdkHgMUPq1acubuvhF+9R7bHhSXA3vbnVcGs7w4VbhTW4
0vdIQVCTYKzJGCClFY7jqfBMbswT/MkL0U8REfq+3dYJi1NeYFbz2+O4CGtF9Yqs
IgWsFPjUwBQRo/EBcz1GxXlJ0iATxC+KyAiXJCDoIvsFu/JgVTdq/BWN8xUfQ8qq
q95kFQT+jD0NXdeU8MIjmZkv9LgWc+vfMxNDJ9pUSS/qXnde3WY44ICDOqIyF2Sq
5Vqyru2xUCvzAVynQ73KCMyPublhJU0QM/ZN2VxO1/PtHjfRRR/hLVHCgu5hhidC
Ry+vTucYcrlxoVC2My3xcpx7K/yrB/NW+iXT39Roj3RwJasaCaNHLOR4m/QyjhYm
R2sX80feJFSixbr/s3LVduPUcw+mCMf005x015CVGzCYDnqLisyw6xAh0/+DCjjj
e9heidiz2HMoEzCH9/o7PCni1mgapXfMS9QRwX+2NwJy5OK1VMtUA8iGOPTbCW7J
hnkdeGH9xGu/U7JqjcrqJzt03dqg8r7bn6qYpDfe6IF/7NOuyahiW1RTnsxXyJLS
7QGy6fX32tLOWCM+aRsF9+7iSmULrpQayPu+bL1kxUxn2JMgCK3+h2wO6IDQ5wkX
Lmcn7yHx68MesahcyMMsZqPqf58SrSMOfrCUFiISieigbzjdhMPznKXmxHcmod+f
wuboQmrXNmnxfLaVYdhoFkqILU3A07P4T7vzAGLRTvDYU0e91pP7ko+FnXW3kPZ8
AfZypUXc0vSczGXlqSVdh4gkFokEV1BGOrqfh5X6CnxSwgrTD9TALtLo++SiBXHH
vHfUSMf5FCj/cwx0xdXrR6mP93W2g7/kyBVMetqCrK41/27gr/HxvAkU4oGNeP+j
WPcqt7odUlnFHfFt7mSOmKH02uWxmqutcOpYS/ZfWaJuO9G1W/nJETVl7oXZuxNU
FqyiIgN+A+C7OqpWXXt0iaB+3u+34/5fnyt0YhWWzG7ua6zKmAeIx1biAC/ldgUf
XGgwIYMN79mBX6KAeDXNAmugi+Cz3UVkzqeD25MJLxtGqciT30Ng7ZJMUG6pZpfA
youI/3Fx6U3oYBBuWx9XDMyq33TH9AP9SKIWSZhRkDHs0u9pN9ruBavmzUuyIB6Q
uwCZDnEWYnEoK+6kPAw+45/4gmf1PUTuDxy4A08dBDSAwbikQSno3Bj8ugfKI6Pa
3T1V4rCrbA27ooXORh0U3RkuynwWc7wdWiBhQG95Ajycmk+Ao9fI7Rapcv2GBorS
8wtQIjKIwcHG8HAi/WnRM59Cq/UksxWLSzTJMtdypfcYaSdgbwUN2iRet1rl3hTv
wRMowOjkF0vGel4zBmvG8MDHLt3BIldsb4AFlmwyPyjz0PtzSHTMNQv9mWqLyNiU
x98DkwHYIwbszkrPKLfTaaKRGtSgfNGwQ4QxtIR4ZWW3z1nSe49hQY4ZR4TkFDv8
M3aW453zqYaX05p8pq95ezLxFi0+fb89ALslAr7TB3DJGR2VsobUuiiBf9Heavvu
Mue88fdkNfJpGwdniXW+kBt3YPexIcnU4XObK9e8z/QpN06GF9SzoYtaIwIEHzJm
PLyDzsSBRv5X4ZRhhydsf/6DrKyXsv9Iezb4/mrPYOC0sPaSk9qBurVifTf7vgtG
ZUI4htYmHtIG5vZUGIeEpyg0xark5kGLBofcRq39dcjOVIhaGCtiSlfBNrIoHt/H
cp2LtCWWVJgGl/WYL3cB1G9gWGzGy+kmN2Yg5VuqRUH6xqf7Sqo4A2KlRRflLmEH
hUtwnaCHulZUHjzTA8d7zkfGAI98Xa2toMy1r6TPK7VD93nDSPNKek+aWe41rXVy
Ws8weqsFxM5uLq3WiRZ5P+aeWnghlfxtWpUMQaniKfWFU0dLiuHupqTeFxyo/Ooj
mHxMf0siCnYKaNmZf5IGGWVYwY+q44kR4xrF4ab4reJKCJLQlJI1hRqEsTCi7Hf5
KIWZgU29YUMePYrzsOKVk9xNAzY/9rutcvksgAB0nPXQ7VL6lQTHLGTtOuOJbfwj
z25sPfKIieynChxWs5RC9S7RxRukRuuSuSdnjCuB1tBMTamTPm9UJhw/dCm1D3lw
shflhLQyrCdJrF4YOTkPBl3FxixDe62DkkzbwQ0GLRTi1M78/pf8fe8CDMh0Kuhu
f76nBtfba73Ko0DuTuLm1CasPJi5OPVQ0JYv6crYl6JBZ8wKFqJqJaw09hfx9Ray
HHziY7+/s5X3OX4851xfF65e6tG4jndgo8bFfU/xvITESRwIYdUAA5L6qfNb2dZb
3Oom0XcV9wXVfCN7rQafDuWNbyd2qBaKBSmWJXqhR0YbRPmSbIRfrJ0ZhT4DM8uQ
yMBsc/pUDwklySTUXJhgmQzZjHzmNtjTNtt4Ik0LAuAcewQVH3CebijBny86f/uz
Xd9tDsGPIgU/90yWyVWnsCkPJwhsiG8b8pvE+vwMtRHPrLBmB3eqGi/BbC5keR/3
MWsQllH7vrYgi5DktrELHtrW1BWxl/0Y/lK4lLeEF6aciKX8ECaLZuB4Ul02WEG7
w8xMpI+uuO88BF06GbfpGxQglO3Lk0FU815FoGbRORuZttw3SyLd3NnlHA6zz1Ws
nz/lb91PJEitBQac+iX5RmMvXYAak3cLSnyRXPTO8MozRnhgpSZTtne89cEKPKLB
WB3nPPPlnBotv0HSQXgV9DtoIiW+lDMojVbVM0KcbM+Sm1YYPp/T2G8KPhzXXxnV
W9EcB5b7zm+9TzrxOspixEAQ/9Q1Wl9uP6Z9NEedkJE9UfJxVdZkqh21+mTD/z7h
YOrR1gDBZ+iRSFrsequl3dpcXfzlekdZJzBgDDhNUDnpAKny4S9w9lQ70/5bfyb1
cY033k4mXRsG5im895pG4B3tnQpyDGqba0TuzfcC6rEVghherBrbF0b5vdpfcE5z
tmhQAITzxUeqwK1Q5rChsno4W0XfDHlAh1fKEoColymC6YKV8m7Y5k7q3kEh642J
v/uKkklMRsE2ER+P4GNLTaeMxlVK4zViPXWph59LHlZ7RFHOxFxoEmIgkqyBzIC3
DhY6lNQYge8EU4DEh0oO/Ex+zsafbGesGs4ovMl2snpQBQcaikgP9x8fRKWN8QmT
erbKaAtsVkbXR4liOB42wVAqacOaqDH//+iY3b+QdvDaMaHrC7v9/U4UOXuZrmTn
8HBWI1A3TmPcsDPiBxndLtzCJldecugwYJu/yl54d6AIEYQgMhwTifJPFV2jlZqk
n+MO27KIva0o2BFEyrEMx0IrfI74INrcGFbzYdOPlNjf8/2rBmcxhwLsFurFjpS8
wrazpcwUc0zy7I939NalIWIhaoVE/cb0n8+t+3LadZi5l5OgrR5kxsdAwLmBRKfK
KsjkQpT3kvdGBrCVDBdLS9KqEX7lX9HPmGAh9yFeyhDuIYCOVQ3X7VsqArspbYN9
1c8p+U6BfXflRnKq+a1fkb1SVpFJ5zhpJVHbVWluXhO8ju1B2AWUsfWLhZYydNI6
N1OTZsRdmps3ODVN8sT5EOHFR26hcE5/k7dcuKYTc7097tmSANAv/jPGtmByoTuW
EzVrX4XzkwKCZNPp+n3umi0E4bBZQVyO+pNkycXSCAXpN6FcI7Ofx2FUoF9t2K3e
ohft12txxMXpMBUqq5SAz2d+ZgIXDfCxGxC5cbI+k+4/MFzx8Ri2S0cGURu04BdW
8/RI4beTp/JepyV6HqNEqsAQ3WmIlfURzxB5MWVzBwEh4361tKO9csG1x9DTh1yp
5DNIdjm4cm28sbWzRdpvP+GMPZ6XxQBWUZs4ccITTUPS03IfxQb5jjJN3HEJkgk2
2OehRrzaCGdz25bnyd6IHTYa6R6lyhMIUdbvdccCL4EVdftGCC+/Wbco0vPB6qLn
AYc8R/7T2oQYOJasPXIXhYtlFeKkq4F2CfAFFinSNvMogvqrPE0Oa2D1XuEpoKgf
yxLnOp2rx2EduFi8Un50fAHc2iHPvYG24nMgmHSDTXLdAcjNLdpO8d6WiVQCR7Pf
Fb5biRrnknb1OI/Lu/wSqZBHn8eGFuhRe9c1HNwnyyCuLmSdkpaK2nt+XvkS5LiT
er2K9vRwvAUSXxChMT2BFna1ZYYjEe9eQ4oGRumRCoH3sBaLHRQBeKbCJCoSpprg
NSs8uQarWArCXjhZZRFPL7vtFMSTIrD32QQ1nHiJRkq4FsFnc1ul0qN7gt3v1tFQ
AazLTgm220B77mMo4uAGsXqeC8ww65SkU6kbr6g5pvcM8Ko8rK7kO3qo67PY9x7O
TE2P0JoqItZwsscRCS/0Upae3LiKVlgM7Ov8wOcQQXApBXjvCM0pB75xsa1qbeaj
g/ax8kEclJH+hPE6S4Yot93krPksC3VIyY/cq/g27xEOsYqanCsDbZzGveYVgkeG
olrRtIH8kj7RNC0x3g1JRiwjE5kdFOJnjBbJ6SDg2uvoH8fRK6KFrkgNU+QwQt0T
QI12MZhuSnJP51Yc1422XkCBICusGEHke5Yu37sgaIAZ3kUihV5FczAPhSi8UxBE
H5PxXNo9HNNG9JajDD48p9m6hQUJ8FmgiYKVhGM0dyZL4GYJSR1o2ixdTaXRroQ5
6z7hBWdKce0IVet9Ga+eNY2BzstnRc4OVZJ6dPUbC8ihf8cJimoUyiZbxOJbzAbP
S6irsPrl5CCMK/lEA+fQspYM8xVyA/HR21G81z4hX81EXCCfps6wl3mhR2+mzJrs
dqBsZG4pXdd09ct45YvJeu8ItnRkailisiH3c6j+diP1F778cYglkwIGpCAgUD/+
fhCV7w0qaJPMUG+O/uPM4VjGOfQcVPj+WolB5a1O+jTUQN+5G5lrxb2FNr6fSSyG
qvXZceRoF7Xk1iMRr29aCLPNA1yCpaOIovn+xrWDZjMPxVnW9LG/Txyy9gYFVuKV
ozcsuPsW6AXc7GF+ds6Imv011P3c+578FB01CJI8+dbLr9CURouKiWe7iESy45qD
m1wj91IY+zvp6p7NfP/QiO4zq+xrvY9Rayz7k7guywy5KycJFisuyXE8Usiwb6pp
6aNmCZ+w9sDO8Xm117VYsayl9wh9yC/uNMwoOF2ff/+rNZrNuGE8dTasnvLzdC54
j7viw9YJp2MhMnFF8HgPDBX9CRoen6HY+wTTOwkpEpg/vXnmrhKxMbpjN6OzjRVV
RLlwPNfL4oHk7vMqQcY759VahAuGCZRcaixnkpVo9SWgrq1Re9tVTbWc8yFs2tIs
4CAKwNoN6couDAHvCdk0P4HPHr1q9r0z8Vf6CbWyzH/m4UKuqBh7QhpKhKzAQdEv
A0tswQ1C3ztqZo1fPY+Ubev7hGivFvBse7Wdh5bB1O+628g3KaAdJXeN3n7oFS3A
tcA4FxWWPfQV2NsWwJHRj0jHAYslj6bWFsDfg4BVzgwWf6nRjTP5yyFxWmN03v2y
idNu5DZvnxPLqmJaM7n7CBcmPnUsZwwQSFiv7RmD7QNuRh3fe0GoOhV64bsZxzlR
vwsPyXuL1FvT+Ex2lkHlB5YS3eIajWd73Sjy12VoeBZ8E5X+OAmT0fzNIAmgOF3n
9xxKthBcRNwEidFM6vMcRSFzH/oN/Zvl102P7Drpyx/H4H34DMV8UrZvgvZG1xHz
T1ZXpQNpb7tG82R2I+i7GFQWqavj/teFB0+2wBSIwdAJ6YCfotE8wBOjgjfY2a1Z
KVrRJMg2I3vOHRb/4JYtP1HBJCni0wjvhf2OVEFr8WEbrOtOCoHW5BWPalxNe3dk
+xRAkESN6LC6/KRS3PlVDtqPg0bLu0V+H48QuGJ3doTuiIOSW7Z4y/8luAEmz7iX
4z9Buy0NB31/fKA4g+sckegklHhquD0YG7T4nKToI5MIGRKi9BjXDAr5TVMZVnol
Jq6EqJzJayzNTzADi1/s2YFI6GmuDhGMG3HRvvemmgfJ8kDOjFD4RtDgcWSRBwjP
0rEf4HjKxKO0mlhTei5iz426thQfeqpHCSsAHtAPkWkx3ptwPF6PEMe2ctECc3kx
iPDUgZQFHCI4RTEg+jNa/E8JX8ga+e6uXeulKKy2sA/EehbcgIo553MueC9L4Ivg
XncMulyxwdqHwfgFRbI6tnJjnS74IemZJ29Je9qbiwRUknV6GQtcMQhRZ/e50lSd
XM8ZzIyX4c4ULQ1gUjQvF0h32bT5aQPHNDp+usC/PhPhkcq5g11PEnvs+ilMI9yp
8gb7Cd9vRRb+J2J7HmQp2OZtglNNuDXMcnyIxrGnolMbOQGfLNAlKuk5AzqXI9Tb
Q9olp8z0Bj24SyQoImQTBJ6/UCN2CKZqJ1TuhiHCHGiO+uBabnQ8UhoUSsD/vT4h
WXGRCKxRQ3ogwM52z8tMkUOudqZyywGYkB0m3e1Q5k836+ydS+sWDebWCreTqmZg
pEmTqYnCXg/RzwBD21PSgBl1aHf0RdnUVpBLQ9YCwBf7EhzAq/eK9X43Umrwe6Xo
Ouh7BAN1SAKdk7tnaC85FGiKU5y/c7FQ7SBfkie919yC+icsVgOeVltv7/IuxXqd
4sWigcJl9Tl0eG+rasR5JMSarafUcdwRs2xIqekHgZq3S01y14PkvLM3V6rDr1g0
QKH1DW4vx+BawZ+Zma2xVVk3xyHoi+CRNSILJ+tXezjJqy+TVk0zH4xmb5Xh79M4
LlCgGd4xAbp8/38gEFyWaunAQdIR9PD5lYig/S43MdFpg92YU98CeeDRKdaAZvsR
YpbIOMfosuaDDszhncjm33X8lzxmsJ9B5gLafmgAzrEXMVPrp6B7MTneiuuFKv/B
12NeC4J7uTIx4P3YMDf0rjI7vE9EyiFo/Mh/tuzB+4+wYDDmm4/4twfKFOp+CpRP
WEoyHKTRHuQIj1z9RiELgRKTDXqHURMZPHxpSJ5STqpLBaR12KBhvAuybUphr9Bb
5OnPyO2JWuuwuTFbzzjuayXTSUCb6ZGFBdr9ifnIZ/ly7+ngwzKEf+ShZYCPbf3k
SJX3F2ON5f5aU8ZNXGOpHquFtz2+U4JwoXIjCyrRziJ5weiN+IBPkvRn+yq5FUj4
ngee9wvs6/Dsa8o70vv8CZQ1kElBHBtUoVm8mTMyPaVmqvjqxTOFTuiDw5eu+eBs
0FszB6sh+Y7DRNydHBHfSvN3gHpwY3v+gQVC7o72gLFf7RcTRET+7SCQUgL+TDwr
9nHUNd75NA2dvVQdOOxgUE2kEn4ytpJxz78e43sFEki7aawEoOmzbXW4Uz2nOyd1
IpikzCIXWZPll6nHnCVTquR6t8zW0nmOWcim3Mt1NNGW+A8yCavL6XEy1j8rZIrR
8dWsTWgiARZ0RT4oj41wtTPL8U66eL9RKWzWj89zqa13HyJR5UT70reTK9y5NW9h
dexHMfEaZXnLPPJny7nU0MA5um6pFnTZq9JN+xtTdBGM1qWlF+chQn7NUBnGD5ZN
9Rx3askGFGr5fZ/OoPOObVP7vURXGENGEs7dxXzdBu8KRtPmghMtrdk73lPUIq9k
0upau98TgxyluQaTJ+CZI/Fqg8xMKdR/VMMDnrzpbct9f1liLNylKseBMzI6PbJu
IgwNBFl0nQWVcLD4NMyBnvVGTwBCZrLpAtNrOC7Jb2t7teoy7ZeCKK1A2E29CME1
n6bLKKHqKr+GVDJ/vXKXD88IxhxrnTaROxl6HeFxZxVWTuIl/dWODl9QyllQyxlk
54nktc6VEfOsh7BiwNuqzL9LqsW3OfeA4NVcw+1AtKBKGQ5aqmXS6OfDSVmQHh+8
PT3gnt4uxWV/zdfxbFOZ1YuKc1cF9vUr8rq12FMTg8EPc5Pg30sSj80RQZ5+EhCV
udUD4VEadFFNR3FPIN903oy+AxgcigMU4Hwuko37kGKG0R3K4nSxSc9uh2Am7VUB
KSHdg3XK0sCdPH43GPbp3NhGJ38gTyzQH/IuM1Jit/Cr5DQEHIQYGr6xZuHnkCWX
SjmgH07UUNI76tPYQOZ+Jn0hvcR6y8EEq6h9hkMMQNNWwMYsycXQlCvyCwyZDrv1
5V6FN3riPnZ84227Wfx8j2e162UgDWp71voFx2y/T/5HT3j76XN67xWnxiWeaD0c
Cjg443M5CDbJzZxt0+BHGTq1iDWtcnfm18m1vmkNVxazO2KTK/54bv5RMl8xTbw7
EyEPM8/8ERe6qQLNDS/D+kliFMT5Y1O0L9h0KS9ga9HmrbLl5OHoSqMRlr/i547I
JVYJ7JgXr8qm2JauaDHP4FDloYC9YET3e2xAjY2yDzyIZKpooQK0c17wjFrkrStZ
aPEedbUwG+hBJOFaAP/wF/mOmwD//UzM4Ii4EM1H+9TjfmQ8F9lvV1XI5biSkYSe
rQ57dqvW52UPKpGVxfdNoaoPcD3zm5rGYUy3xhUABR1QYEfiSAnbM3NCjGMhxk5e
UX0OffpQXjBOQxZyF2MdOfugnLkVf+2XfSCV1TEyh4TV9s4zFtepcAacXwstQ4nF
/nUOrV2F8DgBYFDH/ddbzeFpOUuxVaXcUWbJxhWBBWrnxYL8pXnwmZEmQ7sK9p1j
WxJkIY5xtJPNoBSvpmDN3JIjgp19VFK7WGDleuoHnk3fconusK2yCLZs3m9GmA78
MmCcnOdolJXmMWI46+fKI59bLOK8bawgsdiJDRMARkAFXk9+FM7xjaQBPfIreJLQ
4FZEQWFEl0yY2/RrMRgAgU1QZ3exNMQucOnNM/0ntJcGnPhNQV9VqNRmt7mFUEvZ
WHrPcsgcgGWRzK1LadBUU9/8nmtUYUHYRiwC/NWXOTWad0I5udT12mSnnnndaVD0
kdxyZ9PdpPx+mNW6C88PIIP7Hu3Fz7sb/Qu9O7mvRMyN/wlBr6mE2B7N5u6BQZw8
LThziMf2p0fcLGIvKMhr4Wi1mS9ftyIKclslQeUV78x7IotxLDftW0Sm0TT5bOcP
juwZVAxuuJukwMreKf8giRZBwexls3/ZA0H1XssS9YEfJiYKvqDs+xacr2aKjrdW
am76RTT0EgeJmq8pbHiwKi5KRA5RYAPx0le27Uv1XrEgkIQa+0i6JvX2wD+pBsgH
LD5l2/wdynMQAYL+UJT1LDAbBCeNF1u4nF8kmbGetj+B7Hyb/Q430qHQHlN0FbLU
A4YNHb8obTU1ZNa4BHAYYAtMDgHL65XC1FYYMiqbFfXAmCax9gw+D2Dq4HInetrH
rAWxUQ4ETSw71F7P5S33vJv7vAvKVdgfzG7CPRirrKIkYAXrjQROO3i3seM/7Hsx
B2+8R9xXEoEx0ceCN1oy5oe8rjfwtkvM265xYQpWKDXCMQYERF2eN0f8bUWOijXJ
n3Sd2KmtnnG8433Yog3W35NGjU4j71fJQa7LThdewItArlHkC1bjvyPJDF6dZM5b
Hw3csQHi+vhgQtpP/rZNMFFbWggL0wlFlhS6Sc+3bRBwnPjp3G2xYt+N6aYPSNY+
Q+ddu0OHNkO1yvXYy0XCdUw0lK1sCpZ3EK4f0OMS+vj2ABeTWNmCQamIAPfSGGgr
jvCOlD5MpiHEiyY+nN5YdlEHP36tfgacQ3ionVQ8KcChmpaO56mFwIEfrrjz2MEJ
l3QilgLzObbqVhwpzikwGfV2TP9Tplak2Dl2nknuyXJATxbi3BvF3Dv6JMg2cEsA
9V7YeGespPDbkMazuDlMDXcyL5RnnfAKJbGj2M77tKH/8tiaWkxn76Wvf0bwdjrV
jxPNOq8hlGQOPhQx5OM8wGLx8r8s23YTXS2jGZqXkUOqPjAW0sp3Cy9W+6azyFUc
bFe2AzvDLyXCLXIgxVZB81BoZxoIvABh9ycN2yKz7u90fZPD6Wor81qsSYkDHTJJ
w11JDV2SfZ1AkzrgAVdMN+xoW2FLax0u2/nA+6JpVHlQycNua/zp5Y2ucHY59A3C
UkYu018Xe+hhdNPm4aBD6nnMp3UsibK7tIIuKWc4a68UdsFqDFjU7Aha3QWy37YX
yGYB2Y93u8AH6qf/7gQceOjM67EQ1xDxxFEbL/Hv9vLcczBKP3NYd786Sh/WqPI6
njRetHQnMY/icpCQ3GkGXHs5GhjO09QIgIg0e1ITt60XBUqs/bTteNPKzLTi49vY
XOqUaDepDZNirP9qFPWHkxttHT+XNw5MG0r1hGf9cwWiMsEaZrbtGjSsGw7R+MUG
JoKcC4YsPa20F1klY7G61mwAMkH/Tv1gmgq24Dlo/kfgV8GlY+H3no5ea93tYfnd
0ra/w+WNoXqa9sZLnOf+sRl4hmtyZ0NLwj2e7GpKqlOYUgc/2UIOtyWWZmZTzYSo
FTgsjyG98eIHdNUwrnSPInGbWKml89rMhsMCEx5sjrOJppN3xQJWTZOLYSMK9j+n
V42NKgrbAVChhRKXOTs6G5l7T9Y6d3lOSUD8yuUVP7zB3pdxApc+R5Z///nDzlCD
kxtlOZd2JbnJJztAZ4RIE+HDD0zwOZ1y8lVq7RXWrkEr/g7Btb0CEwIr/gx/QN9e
AYXIc44O9QdAcepOepWEEec/sKntND6v5rBUbGcaPvwGqiNmWQRbZM/pNbvLB8sH
8SBRtdPAK/x4gjcqYr3/u259SSsEWZafd5Ymt4GG8YmMw0VjoDJBmuBvKjwjw++w
pvYv/2dZPcQ7U2BqqdlDtBF+nVB5vQStxvbcI9P1qduHPtuPUhy9iYst8z0Wt0H2
Ot/ShCaYBf+OJKsXfjrZrG5PJiOVg19jcQYiRGzsUbTAYPQm3qi/gZYGRUfyZBrg
X2OQKtKM8Xg0i4duYfS2dU8Q0Toa0mtv6s/e/EtEZIIyzm4n10J9OCO0AxYQF6Dk
UJwzKUAvk6ZiXS6xWgNTBAwi45Y4emmdcGoPo4BNQFw/iNrmnnSaHvDd/GjSTjO6
06HjujPHsWfMtBKWVMtIVstcUazkcwmHiLTihLT4wTKqQ9YR2RWR+InLYkplHDY9
WnBBQqFU8rsHV2F3fhcvaZqbRFizgnddjaFjMdiSR+5H9GaSCl3hZAKiHjwtT4nN
fSQFHkApcdTRnbj4/EPKq3g6LbOr1k/gC1LcHt93n5WlnGfMLEzjH3Ox9pWrCudG
/1FUyWVh46kh6jfqKrdUujWHU9uqKZpu2qtaq5P5lrOONr2tpX2oUHuFXBaQJRUj
78klYUcorPjHDacBPOBcH8nUkPO6yOsKi+LLE6E9JIXIk+0pdU+8gMD44NhbhLmJ
5didZzSEoQ6bI5f4wJoPVXVf4xzZjrrwN5tE4riHwUfK6rSoCf8gWOpBfHCAN1Zy
LcLRIGXJZAEW7hn8G4v+z6mUXoORmGozmUo1YL3XEfF7Xu+nLurdR0GKYQV6nis8
A6SKA9aA7SFT3MThxjbyo0yyPJd1MggxAIZirA75Y6M7/0PPIuwSNl1zO2w5PKP9
Cff2nJyroN/FM4TZZZcuctNDRWorthoS7EkQZqrIzkSaNctR5WS0BeapJkTPcPZD
J76sIl3sMezZBI+lwBoB8mOB2+dfQq8fPs2qQZkCeeafUSCWZK401Mz1oXQFGqHz
wt3VaidsVsyDGcQRqPL2C8KiPYcopCVYgAfam9RDghbk6bjUFIp47JbNzB4iGn4A
TuScr20S3x7+O2SkPKl8gLQbiCw4RB7iPtGwB1+ABozy6ZhqkoKGX3SFC2fME2rJ
wmBNXLw31OIO9hL9SqhDHwwF/haf3FmhltHf/f0ZlFeFUnhFHBBc4YOyPYDqUs4C
OMJl/v0e7imejtUINw2V2TgfPA3cVEttjsOzYgKgCXdXgetfkB6qI4RNPfKM1FGp
P/eA5ljoCEIs2Ox07F0aQTiygDGwAFVUNXEStLmxKKHa8qlNGkiqkUXabmLTlTYX
mm2QqzqNpzmf9Flpn1KrkMzPZWMaCS5UAaR3Qlear1NQaQatcfEVcu52kY5nTCOn
D81Iv2MRi4Rp3Ebdu7YH/ZmMX90w1NMvA9PxdSqYT8b5zfjlxZOclAO730xJoCqH
aJ/6cIOfZieQxYzXgSSnncSiFQBt7XhuoXEsVtEuojhpH43zWrZNhaZGA3pzp0e2
M49FEdSu5NKCNiTi/32mHYLkRzzdFi6w4rTKLpnAMfTMtrmibJnZWYw+xQ9P8W5o
uOvmiNXeY/M0tGVrtdyNJ03aFaChu8y15pbdUXJ7H9gXvOf6mmh9JTWWsj7NecK4
AvVRKdSuAyh2ft6mUii+rxlI+EcIZ6dS4aC76xMYTd7zrDz7GKn2Z0er/Kun7M/H
GK/tIMpm9yd+94wGP6xdg1MswSkuiSP3ArpkKihKsI4mrreLp8UHjbmY3EMVX+aD
v5WW+qSjm9MXskAKJID3WNBqf7qQNF0Emnhp8BgoHoNXyKCkl86RcwdkGdsZqw3F
uUHEjijWbd9pfLBO4+9VxYYFDcTbVnAUq9mG88DSVmLZI4Twu8f0/Rqxa6E6mfI1
ggv4gIhz6RfAG9WafexN70am5TPLYA1WVx9pPArLVMIC/of2LenmIkLCLWWTRXU6
fKWOfgMZyzryYIl3P9urUPeW+02T36fu8n6T9rkYV8zvcJm3PIeHV/aUezcTn2Iq
Favbz1PM3rXySwDPoKZzQSeLiADlLu8hToNzzckTqa4ltu9PsBRK5eXm/2QBhrww
ejSU6QKlbXMyTcCJRqmnMh4mIWqfNvGZd7t4ZrVn3lTia/Zr8G82e9OmN0fg9V8n
8j6fcxUfGs1Co6dDFqwuGHetyQGVrp32MnY1QGmgNUFvyva9o32dAMMXXtH+8yWe
gwn+LvcYeCYAJlYJERTUYkNNnwvDBNzTgU7mHRLDLFMlyuwKRBkgyN6vZSPBTCCz
pR1oeZj68hiTzMGH08S6rMXXEKInZ+Jqy7JSn2YNzXotv6gWSRwVQYjQxr5H7jeJ
krSmj/5Kj32Hot5sqUkSUT1LEbiLWP1Q8nFYynM=
=/Yut
-----END PGP MESSAGE-----
