-----BEGIN PGP MESSAGE-----

hQIMA2vLMnNSlfPNARAAluGdccH9HyqGwXDMLI3WIaYyTle9CA0yG1nxcldYYDuF
n8e33x8+ND2XBCodpIVjzyuC+nqZoAeJI19mV7q+NLYK91LGbRqBmODsseS9ohON
MJDxM/6uu/Pt5gJ+/uuctNUszn+zZUIsb1PuBeEWRDIoJx30BGE3OnC2YuWIytQl
amwL7II1gHN7Ob2xE1hLoXSubvqs28zKUIENylItUY4ueOA+jCwycaUQKJ5Dwls3
8L7hBlj+DP6H6XvijbzJRZ2uRQjBl2lNIO6GKMPdHYqz9RiMGDqYOcTidZoUUtja
TawzPOmIgALB7JPQvuiYtW3MDA05Jb2qT77aVJyQarfyiXG133lt/lEedDCZyJI7
QG6V0HEVmPHezixpEYaYxg5Vb3nMOk6byiDzkJYcu8YyZe0cvWrInPyiFmwWXEw1
zv4q1LhwSUgYsdnpHt8lvxxeDYYh/RBIb9bvMYdvqUlmAkC3qH+WSJjtvObyw6H3
vyYeRe79eouYUH5/5D2kppYuOYtdbItgAD9BwqAw7gDP0+uMce0tXpYHHLZi2eEC
RHaaIULeVdHoKp06fZ9Z/feuUzssRGhANz99eLFpKewE9J2j2Yo6ap5zzEzMX0wk
xPqDWwukvn1phHCdYLm23uIiD0Q8DtWaPpFYYS1K4Gw42HPNRoflYqxlMdhKbI/S
7QHTYGCzZ6rlCi9CM5uRyjes9oTbaSxO1zZH9Fdbmi2XiQEPeygbywGpnsY4PB5T
wWNIdHvRfsc42CsBedfCx1ZQdVn8kSnwan8UYhhdNsJiGHrWskYf4xVZK60NwgEj
rTU1qFuub1cAIiKR8MgvAPoxqJrIEu5bUjNvsCB8I1e1yAzQyGKXeNzhVpxOd1b6
lg5CUkzJ32Ow/QxXi2y2hD394NDxLGslyjl8vN/IVxjG/cON2EYcwOBeF7RX8J3I
vUrNC3Eoiqkq6drPcTS8yo5mLpA94c9FquYNJ8YCMMi7Z9rNdWAT+2Obz4/usB65
nMcJCUeIvWYU8s6belEdPbfVw9iLup4a1qP6+OgHEbgz8Eb/WUef31vUppEuLzvy
ihCCJNBcnkmKTI6wXrCNeV0vOV1GY4xF3kRC695U0ZGU842MADceMp1hxyMRfQ+T
ppmfCkQvXGwhtlUCw5VXmJA5/S8AdyvPGikPGFWg9czHV+x09k6JlJYPPICt4SeR
JYa6qZapx23C8TDx9QzS6RkYJ1YbPJco4y1AFZGWXlEiVO5BlrLyWTYsG2b1aK+x
SxyylbnATO+/Q05L9hFGSCNf1AlCPzmmdUzCWniVb498HJmlclT7ka98srn5JJBu
7t8nOT9mAfyl+/6ciYjXMAwkYDTWDLpKQYouUAO7LgDEXbAr8dnZqw7of0X+kOqQ
SJTmh3iveBfuzi56ROsu+WBACoWoqIEc74i87jVbUib7Ju3UPn3/olwJ/g+f74L/
SfEsb1lWSZDltFFylBRKqxemAqglIksx0Z8b851OxSlC0CHzQEB4FtgZp/7JlFoC
Ct8sZAyPyufceYkPnEVS1W/oa6jyBW+BM/Js46GMlF6Dj3i12aICnsXpm8TzGh4N
dxPHsLEOkhziSS7LbylQIBSLrSdi/m8q9XA9oOvjqREY0P9YQL2q/WD/vjsCGCy/
wQu++WHcYP3Zn7claXmzXwKj65m4G8S4COTey3dP72W9SOr+6q3t1BK5Ha8F5UI9
U8a25AuGY0AolaOO+njCmY1E1yxxjtFByrFp/u07JKRruVoUcYoYj/pDtvx4Px7N
UZDIkgtoqwPtRGOUBGNBnzLRCBF6End00ybGJEhatI+n65L8bve+r2RjGW8hReDR
9FUJhCwKvJfbe8q4fjijFS39Skwgdp8wAM94KQBQPMI+3xpneGGVp/3XyHhV0/91
Hlkbq9ldTLVaMiMrndT0YSkqMpNHZ/xj2ChtRF2CwnxndkQnNyDyJxdX7wLLneTG
fW1gR1vh0FC4pe0Devmtj/eRJq6oBtBqmtvCx0bz1GW1FIcIdg9XdFJcMLMjg+78
bcK2uXhtpRUv9xgkimgDR3C36IKToP83ZSkTHgdvnX12hqjDjHM5ZSqiIw6aQDCZ
XSQG79iFZxIg46uLDUZELKFefvpVtvVj3vVXkwXM5YcPdoZTffCzANrqZ0JCyfoo
tX/jx7gvSxHg349NqmDlsp6A/F7z/tn1ph9kOkyPqN8EKxGzWc8n9BkLZ9jnjukZ
ZVZdmeEjyiXod2FkJpVtarKoI9ws7XOb5IjirG+yUvB2FK3wu+yOLAW8QxYQ1YHt
OUXSv70RXXU2ras8+dnPUyoNbugb4zlVB/bpbKongy/3OhWEnyp7uIWrHrlW4ZIr
cH+JxPQRdQp3MQAb1VMISgeTUvDMzVwqmIzVBxKKmi+1fw5ruEwS3vpdriR/FJAn
sb+eW0Ld9EWUXNBzO2mi5JM7LjfJAqPAEm3BqaQoQvuBxnkYf93MYAMBiyiAnwCI
L7OLVNr7qPtQ6M+x2GG8SuU95zI0Ejo+sjDtCnmSteUeRG+x01t21vWr66JrlY77
Vyl4BQiE0BUtojfsXLXjB+fzURUwSyYu9afkH/ytGYngSRM5PsX81NEB8r17nBAq
tTrvGpBZQoRDZXaBgCx0uASYdir4UB02D2ivcVfxhf0Azd3Ozvm6+fUdYATlK2AA
qbXm0PG/8uhH7LZSlMNt4Rx9/6cEDpGMfikzupuUH3i0wGR2/myos+97BA6dQRgX
xK+wBzEGaZIlrVR2t6pxD5nfzMW1027gMi7Qu5TW61UPRaKgi5RCIWl4ESHbuu6X
HdKvXEMiisJ2pJX78RgrEXtrVdz5fZT8karDM6+Ed8dWDI6Gyu+976IFDWioXIr+
FOX4nSr3NjjXmAv1OYSHfW6brH+0HXHKiY9ubyIpurUWDxPBI0V7Mib7vW53+8Lo
k5XBuxNh0D6zdujHERUCqHnDcLMkcI1XBax/JxWEdLVuWeyCVX4/xtXrCK1Yf8Kj
qzjgzUv/3jkN/BHxD2rWmZWfI2MRtF6awYDYLNUaBzRfQwkkJUSf2FO/aZ+xI8CL
+RA17TdVj0fKTpDzceFcg4g2Dz29kVGFJb2AfX7TzOkepj/WHwvVhaFbxdqWIMMD
craeShSQVxQpPhtHz8BdjDT5A55oHMbEkLpQJin2buRco1hgDjj++w4Kkm6SPQek
g2e1UmMERIBNV6UDNwM+hlRNRYSduU0K0D8Mgofh2kmUBRp4CJ3qVllj+wCehQGT
LNYyj0eKyCavCOx9UuLQCrx34Z/mxTlfZqUZ2yRm75cEV8zRANXOo9P7zNUOPjjT
42myZpnhFBp8AECSCJ00s3stOfd8+WiJyhfZikXvwFT9c1GE25mpmCY9FM9AN3eE
5UoNj4CGj1JQPYPO9qlgBpSsVTby3XeXExOQMRZk+k4UPDYQlbmHtcxrYDNRPBWU
5JYxuXlR/HaB8k3UwjS4Dzd514SHrFeCf+1Mla9eLxLFcQDJ9RGvE2ZHh49XiW6n
2QbOAkuJY7z6uA1KiDvOBVrgx5q4wEuiYVExQn5nf842iNYg9TADEcZyEgbkMbBG
YPL/K/x2CukGwV3o0YGIMs8msCfE0a/qWMBsWB3Kl5Cy4us2DkI3Nq33JznZn138
vQ6ytcaCfnBttMnHvNv+N5edpizMlCgVA22318YSMtkAf4HhQZZ9e69MQpQe1oXg
7YdavJAy+/6oPu7S0HpgzHZcuDcTukhEIwlv/uFWJFrTUWGqdfSsU2rq+gvoXqMz
qclMl4KyVW2/UHvk0JbWQ7BlX+5EuQMa7KW84F7kSgtowS/MtNliljhi4xABzdq8
QeOdQaj4U/TnZgsv8h2rZvP69Zp05u0E8kVOBxRpIizJd9+xj5XnQRFq1rYNNirM
MDDkGHFSheZR0O0Qua247q4Ob2PqXkXHd2rVr93iF2BmCLfxHEm3+Wryr21oAkDK
ECeBMAKE7zvCd7EWMhBiiTxRgeooXkW6zllc0DLDjyCtvhewB5JUo5Vw0vwSsYP1
j9wrUQhtZRMocOb914o4gI6qLJ1FA5ocQv2M+H5h6DG2WTNSDV1OnaicceknHPG1
B3Umx7xd2TQzETZDIqVhWkoGhYHqn5LILOloYNJMsEadQvJSn5nVTMsd9GwG0SC2
325hDR4KxIf0bTPRyeDoA+frwj/oGKjcvPIKcqT094KI28Ig++2GrBVA4scLeSjQ
ARHXEvEvs1kgAOY1JGwkXT0mRpFuB4/754f+ywpxCf+ExMEuOV5BYx7UKMjnoQ37
H18tyR9VWQbRo11QakKH94rfFbuN4b05eYYOFWT89h18i4zAB58DeHBXOmTyIFvf
VuGqdU2auMkGopULkk3NHFwH1wSl3WtkI7Xfkr9j4X4ICp8mFC4tIUB0KCQWtZQ2
I20XZcWykI0kbx3rXE/pOX/pu0BVGZUCVF3GzfGCVS7jHVCKVEPuPvUGapnSP6QX
eNiBOZ9isFp5VEdgbGgHIJuIZAaQMBiCXYnr7xk0iBUOHzChi0U01X2syB2KcsL/
LIybyUgD6oLPlaFvXP66J1yvYwhAWyYj57KABFGlxZP1/JU/d86YxJAeoN8C4OdY
U5wuZdyygBtSiQItJ26VBE693rA7gCX6KwS0xWkh83kubsvUCYLtEgiNB8HfVAjd
8ornD+VXARyuwHCyDD+i0RfBg1Bq4E3/iT4ptmxzMIYOER1RycTXrGKNdUgY7hP5
+iSZaB7oA2gSXvWpHMFR35buv/BgwLAdbVzuGqUZC16ABAf/N88JP5M5yHg/9EK2
3XGUqxoiOzUoVDwiJUiGycJGj08BBDA6IE6LKpuSvmoYWt5iAPfRtf9WmHAB5QP8
3GthRQ430xXFytZ85AhHORZ+pilHIGFKh0RUahQiB2fwB2qe5kMPnMz0z3GI8gxC
UuiLBpGDOlz5eFiIPD+cLvYkdxfgMeKYf7uF9TzjiiPAOvWpY0ES/JME/iceKaBR
NY1Akolomhh6osWJejL1w6siHsD3So+1EC2/5O/AAPyA/KTnunMyJ7hP1epFNMyJ
Dx4jptKgbxhvY1MtjcUuWH5itTAjlHrqdKoth8gOl3tDT+wNQLvS9TAuhLP/iltM
EPn8UonNy3P100ffC+k8NfOCsOr6D7syOCPNy/ADrJxJV8ZEoIDDY8HjYWu/o1gC
EPLaHQW00le0+4aVmC27G1Jl72IF1L48K37RqnXBwwxRiWGLcW+D9LMah37CptqZ
C+WLmxUzNQWftEfhJHU+jq+hJ4NiGc0IV4w6tDE6eaehJqpzi0Z+54rBkftQxQYi
SARTnRMuH35VrfocZHZZVcphT4NDkWdjdftezn2z2pdBgK3e9DS1Kzs1CsnDnXM+
STAABIzjMYjQzjqWr1Vk+aIp+Yi2zeVtGdkU2Av+7rz0mbaM103E/LfH0DtwlfwN
oDT+0OTSeUb/dYUSyq2kqDthzrlB+1KYlzm2NpydbpRgzlFQJd1i1pxASCIhNST7
PZPN4DYQAuNvAQDQumnykvqlBrVWMK3rXtNUTSg05jAmBtWHdy49n0+UbT6RId/t
Tb03V+B1BTJCEj/rbUZ1aSuwuN1TJSA/exs2rZ5xsDsyl4zx6U+/z2ZBX+/iBcHd
5sIh9dAyh4XXSXD2rEeWqpsU+JxFZu+TK6QG5vdOtxAz8oTSSmzaReSfUwVv96qV
YzCBkGNYkKcHC0WGl83EyWsKa+BOCFmb+UVDYCluCPdACYDQn9pArZm/4ipAj6ya
7QGciU9wfA9xziivQuR94I8g20ZMD9J7inM/U3sIwItjFAR6h+7GILn6nuq2QSPh
wtfFEkUGS0HSiR8TIst0fqbjaTC8uJhxxnWodDEpwAP2Wf3xRF50J/ei4kbruIxX
l2WMiIP4zsJAt22PgjpuulwJK1HbVIwWfjTxXyneyvJLGLgcZL/7/6SaiTqJFWnx
cgLjR7P9oywWTcvl6C3YpR//UBk0OwYaiqCDOKRkdThimlKchX4Zp12TGv3f/Sar
Dv9Hr+xl7kIpPJEpWZFxVVa+mjvJXM+MO3/ffZxpJCKRK/HrUFB+cSLSU/I9fjzj
++wOH+7DViN5PjttQipp1I62q610A//EeCDiGmbL6Aq3hgxBus4TBrA5LtZzGDxY
sX72Wkgxbet5idC1s4cXWD0SKNHorx2RS0JukWHvzXI0s6KR3ELyC3A+sQnImnOn
sWE+eDN+sur/ywwstnNWCwRIIudX5qBN4cKiH30JVfzDGfg4AEdp3OuD21hDVR6D
kqYBiZCV8KEBgfdzTQ+Vas/FehrCwGz8xmF4lD1O37YN2ogXCakhvv3RkxKN+ds/
HsvBSIQCNfSGMYbpnTvVnC3UQzn8ZJj9ldArR9X+hXEXJhxjhVtJyUdg12kVtISv
4uhmrSPGY/TXUePSlcvTZuO+aUPHlpZoH8NL3+d7j1RJYF9qVAbDa2XobdtGDxdI
XY26r+s/zTBXSuMo4HwVAi/zk9fiMI7WMmuDODvtZ8H6UPpKx3pk5E/hVXEXWR6K
fTS70/5v1vP3iykvJ5icfg/zli/WU4VoOwGKganhNHCizQqMoDDvMQjOByxrt8ET
QJhe4IDlQU8h1PDM6AkN2uzwkPdho5NCa7G7fhkjqtbQ1wTdD312Zy/xCtWZi6vg
3DPUyJtSVTxDsulUvH6XAG06HR3qu0Who4EmRsOhqCXqbJP2tHJdos75HBIlJn77
ycGM1fauhJFBxnOYsYzdBAYJlEpykmC3MBChJOaJ8dVcFetUelDId06csB1z4fgc
ZsnJBvjBkHVYC4E+p9oihwh1cx3LOOpqjAGPF0gwpsBtccWOZuDhFmvJjW3KXWZx
us+cm8JArmfwzKqwNBlNOBNe0r8AGI4Rljf6ExLvZQhepiJJSYTcWJ1w3ue3hREh
zTamUmWw98m5WkjzcfDCfb2ee2lb38qt1ZgNftjMU8C5jAV5BLujflkjMofQiUIg
muRE/9gLbu255KbcJvOo2D57oki3qkwiIGDObFu9SmfjZyzROAbXOiOATrXhdglM
TRHPv/0Y60nRe8lKVYStOe+sUVgRvSaTCVMoDMesNobvnpWi6p1aZuLztoNi3IYH
sUpppKXyfEOupriJVrtaXIgOierNqssX0IGWBohyFcS6u/EXxvOArpEIgwL/zc9O
cByI2kI7Oqt0G+T0Y69fesVq4kfmM5iHMcVTc6BsY8PItC1xJjjsSRlAbfkoMkcR
z+7rMSqGSAfcuuPb5DAO7YxOiE3bd1bRgKWNvN6bU+p2/nDp4yN9x8cTSzr2jLqn
vhnEBZQX9Q+SNwUMsjJ6kw0CLoBKwy/SI04DbhewSS3UFajO/iAHVeSYZ8mxobri
w/3sbdh8rA1uUnxfN0DbW2oygAajQgF0HRPzU9sRH53ea4fqL16DKAe5Wv7ONTfu
vcO8r3wA5SrklG8fpHY6Ef/we/aEyYBRS/+bf4rtNzWu6qKNL4+Bi3eXqhXr0Ud0
aubCf9fp9HyZKwXTE7uzUKAk2j/sfLZAsHaW6ncew5vo+PX1KB/ws8QxiksRrU3P
IjpDL+ag/H8ywrqJlrZpSbEpvYmfFlfS2VrF3l4KJuWkVKcOQusM70IK7FN41Vvf
/MviVmuOv3CnJR11qKwDXP2NtEE+v0SxyQGAeHnKLM1dhcV4r8ZwrB/76/blebN9
WGadmk7TclK9P8W1Pz1jZHuFhZ9MydHWlKPUq7HWLLIJO9e8GIfu1BCdHwAh+koY
HVu13SUnyzOCX5RHjpb3KOImFiAIyTm/BRBkNcvNVP1gGugSDVjdMMFbtbKMeXVj
MlKahHsvLrllD0GO0Iog6XK3ER5Qpt/7Xu629gHqTfDL5SDZNAkP387WFMj+2agc
lyOgD2Ct2hU6bpxHqZ5543w49j4KYfMNPKuY9TMqD4zPHjZUafub4LlN2CpJbRAw
W+gD8nQ99W5725exHTfYdEec0MjS50KaOw+coZ47DUXS5edDhNFcDlqq0glJMBwP
p2QCYVJ3khNeOEV+KpBS4qNuju8C0+Ks3OdS9dysyDYE2tEx0FMNcMqStFfCpbFR
Lnppr2AyHbP8wkeTwHsuKdgXqZXo7ui0nJP/ANmIJHY5K7BNZotPMNxy1ImGfTk9
jDQ/vrD9JD5p8ONBvrNDEOwqRorveOiGC+AokPbbXYGCM9/A/Ue2CfjrEyIgwAGw
EqAxGREk7JDWO+KWnOWO9TirC4TdVxYiUIHcTVv69G4glf8I8JZ7lLj/bwdfKAsr
/vko/xnXf3++IbjFuaO7uoC72OFckh2qdJLDnGaI/BHkMncJgtE0IJO1i8zPeoh5
0rXNNUBg6lL75R0w7oq38F6WIqB18KDZ3qfNB9fcdfT0+oBfvRzzcyV6POpeXSWl
MpIvFj2wQdG2RE8nJdt5g3qNKebRyDcc0F4F97wdV62H1iNklWZHXvgXfbTJwiVU
QY+JT3FK437Y1c4DdqeCWuFHKmCNH9/WwgrHeoPxMgOfAzZSi8G/Nc6m3LwSScZc
OpyQkLAGBvRxRnbrXHZFwbbqRObg8XqhV/0v+5ycu8DflQlp8XcbSFNyEvmsWTP+
UX1B/BSImFL2qin5FRv6OITOVWo2Nf1BE4Vc8LZy3i/cQLLdgOqLgzofoZOR+h4F
ty00X/cEUavlsHt7MHftdOx7y7PuDz1BXl6BF0H0i8jqduzaKQgOot1HKnu9uudH
PM5E0QOKI5GhMJ8V8zW7RXCnecp4ZJCgcLyTP6T/SnINwAR5Z8NOtCvcF5ch4A8g
avwdG7oHObmwS7zXYpwES5Qj6aUZVK23m5JZNnGlIAaQ4AWWN3iCrTn4pZL1c0WU
soTLJhXuPiQq3KF0Nj/XOC1CIi/LaEeOoVAOtOx0QdPhqcrJD4/91pVMhnB95cFs
D+FWg5r4RP2SSEaE08kDoLHHW7grklsCIH6EipDP5ORVCXunIgLj1Csb6r7ZD/CO
sERSRuzg6dkb6DGhffV1Q5C2yF4HbRgbGFMct+jhG+nx1PJsq58UjpQwk6jZMT9s
DK8ZvUDHzQSXSp/t3+A+DMbE651i+nbvyO4zFBUA9lgwxWn+DiggF4chuAy4fUSK
IQaQAOrmjtrolr4xHelTv445o/cRVq56688PiQ/yO9kNO5XmpoUpo7Z27BUgtliM
jKuoAlGZQx4A1BcYz7IuhSVuFV4QzTz5Iv5f+qee+k8KHXYdoKzC04AoG0zoxcmS
WcSgxPnTDpOPhmhCTBvhMxwI099G5vkca/6kB1vlICWhRiQsT2WU7FF0VoVSgseq
mtuWoS9TU4SOrtEemIO33kw/i0SEWIGe9sKuWeYhiXoHn7bV11ztPp1UxXnguHxX
6REaCLSNHNMV+xYzLhStx8kLVYs16H+SpnRv5ZOIyvulHeRFhpkZfw+3Gd6OaDap
3DdQdPJg3b8TeUJJ4gz31/ST2oKgYjY1pKim/RBN01LY6TH7e94xayglKmvd9Ezq
36Xo1gZRrSq5mwNSAJhwcrJC3bn3MMfBNv1AXm4PsEBxyc8I+DG0ybV/SHFzh4kY
JWF3cDfM14iZSnNjy4dmFYdmQ+LkSmDXBJcP0eDrF4KJ4hZa4NrNZySsCUrb+rz8
dX2OmTXkgoDyEIeZG7sm7F4yHtVJV/8ZNvgZUkw0qOQ7V8QZ49WyBceaBGrij/0u
c+ZeIhXgXaJNoaN0YEhLgqzUzbzsj3hc8S8oqao3kbGxYhKCR9Re+pq0dtR37HFe
MLAq+Q3Qq7Q6K9T9f6Oqpc5UTnYrYZaCpQPTjMKS8vUJH2gZhAHpAHVq6EteuhvE
q8Kpyu+6P+srmjHEDzXJ0C2LYYN+q7RcqpyRGhP1/L6QihuhzYPqAT4F19Ba1Hgw
a1ZMkwPxvJq9J0eY5OYTUjhsSqj9sl+t1nwyGygAbKX/gqFUlcbny9V0UzVESaLu
YUpgheqNyFOprsL7brzqQkrvFau6JTzD+bNv9qrTeewgn7ZDqEU0lGQOTbrRgTcf
Nhkg1jgCFI0fttBHzTS5e1m8YVRyY/10+/p8q8b+64EhLJgl8fh1GmhHug6wyuTr
/7v/Kn3GgMtZaOxozP+NXZx8Ns7DiL3y02qPxhGh0/wrDXyzIXfc8NUf79KYPViL
bsutCGeKOZ4twPaGipSg4eM7VowZP3do0bQBZHj0YuCmBC/rlf1aNKVGtfIIJm0E
tB/FPg2+E1yCQLh2ekHEw4g8pKKaXJbmHpBAxa54N/hhzfxeCjyxrXIVXtIyXLc5
HyCuqRkKzhkR4pTz4NedLwPz6mRslpzjG7LFFNqGJoUcjQYIwiQG50JyOcNoGBjg
s7NpXfz1PihOvGHe3H4PJNslooawJSpuBeuFBnH+TKTrkMYmcjY088roHIfkAx1c
YRm+4SrO71ipQaJqTztSTbl/8Eqvr/uv6My+GZEmchMl4Vj2DA98F23lA4yNJZ1M
r2U3z3TncKchpEs4xWI/gD6ZPkyU95ISG3kXnR6T38a520KJk+B1ljDVABdHCnnP
fP6xiAryQQLDwqopSlaNFawORHl/i3juidSSxyiO6alGtO9xJCee9F41oHEWh4iK
lKBUTpCwBYI2NOxUJp+umh5dG32yRBLi9BAeTcUW4xOzLEAFvbtB2Tia7cqCSyIp
fCJJ3GZl1e6xumaPG3Zvjf433YnOE/ovQJxr7cp+VFeL3OrgGV/p4J/wVj95krcD
gVC1vpBpScjiAXbAp105wfFxbbkxkKYBaHCbtlE6e4iOdMqlnxnC81Wv14bct1Vz
LxBd/DuEm82qkMj9z/LvzXbnD+YQE2zPiSp+xs2TwrefghrBHs8WlroeVPXz4/NF
j3AcBD0zkB2C14bFGqF4VHlGlPSKKe8x02qpRMyeCEAF+PnBWkQp3UeIVVCzsdBn
y14M6mfGVKsEH9tnWDHrsbKQtz6VlI2hlTU6Lq6w9y5RhFWaWzKXGWgAhEKyIBfv
Tz915DjQVbr2prx20tHvzklrL6HtoSf/AMR8gIblUlHSt5oQvSElGqca1RRoCO0u
DtlhMC43kjhcDGRjdK2tdhNY5HsrBLc7C7p2mFIywUL7XMg99lG0Z9H/omKSqAYk
2F9oaghIO3oZA7df5SrpJMORapBYB8OrrfRQexOJyxAtBvHo5w1fjKrbLqw1293x
3FOh6HL6O4U8UNlJhckPU3ygIq7cARZaxvS8p6Cbq76lehheXGTyUMyJIvk9LKU+
WTisJweApSQij1TBSuJTViMaS8tbPHmfT8M88vNywCXK/2oFZ+3N60KtM49+Hc4R
m0nrxyGUnCERGQkokonYhO60jr2mXxsl9GVzY+x2Y5MBfQywcMtufBFp2kcIXgcw
xeua5g4HcTulo5lw0+IRSEHSvuwn4LLmRgbSdSWn0SiHwMjvCsxSX9xi8KXPj7V/
pWcamIJt5WgrxcFEP+HLPtQkJsjonau0bI/3GSQ3oEgwbcAT2rSyOu86zawRQ72T
716DZW3wJM95wn59MLYB4gyZrvhtRiW2PHaUpyc2Fa6gNNUGYtZaL52JUBX03fNM
rdVt/SPSZ/DvotEeiq7TBDcxHBfcn6/ubZ1gpf7REbFz1uKiRPWr+7EpRK00rX/5
fAlj+1hW7YVVjt+JjS2fq679GcaxLQABVIP6YekbQz5h6xS+4pdBJ/btmCE9p/fi
izI/jfdF5yt79fr/Y5hhSN80rNKt4N3OMKNT2tRtxbeR83OqxlZTR4CvMTuCm9N5
4aEXdD/HLUY7gNefMfQtLKWZauXiE3EZGc+g7mnG0vY79KOWtmEqfhV769upOPSQ
K3aG+vB4N7Px4UIKiqDlxanlhMx5r6O+qxyn0b3R6W0ATlLBbUaHYkduMw17miY7
oyYsRuDcNu1+I32B3MjhGKN/f513WATIiZh0VZgh1aAzK+mK3yvQuuRy6WW0hh17
vMLH0h6k1HW+Tz/AFgAD3RAbLqb9Ty5PoZrCZE4ZjvogkNM7DvTqcBzrfcQNQZHU
v4vB5l6oTEehmgs749rEPg1YUJKB8pdPcxnBWPt2XQ1S8H6HVGmTrYe0SDzuHPcm
s5jdqvtlgU04mD7SuOMtPRSDedNr2NhWrTL+8bRHj534CVyndfTv6gJcqOdrCUc+
AU2KMJeIm2yv6z/c+zL041EbOe92kWN8ijr/TDikaVadqtIXvWJONAqSVxgltoUO
RxqTjKP2M/f22L2YkUzSBgzqPLT8CU3Kej70w6NfVhSBA6xCNbqr6XhQLbdbWijN
S6N4CEQ7hDvC6GS/fkvoMhUelZ3YfsDAZCoGiSPkRF55kkZ9WESqsHsvau3Xi9wJ
GH8ru4aIC8V7t3F8DENswGIdHEivwLBCHuKV5hi3FXG6kJRslHcJf8eJfKMcE++X
6bM6/xKxzPDHlfulLzGuua9rAcYXGcxbM2bN8WVw+RZtxu/9Il+UW7nHA+Wbv1og
KYup4OTdAQkJ+ddwFq8YDVIMgmeSeoEt9UpiwoS+nVopGmAFuEkf9kpLm3qY7t1t
33ZLK7seUV+3l58uuZhbanAKWv6TsMHMQkJPEKzbC9XNr8abCBXgBZUS8NYYHuuw
cjugEA+Jztm+8S9obSKbtTIOdidparDfa20rBgH3HqO7QOopowJUkt2+VKkY4mSE
9AM0mOoO0PLxD2zD6tUFo/3rdICsazqnWLmGUHkGe9PUEvliHPzagHAFo5NWUIsw
g15OtuhruUZn7sSyNn13DUZn20QDPjZGUNK5Nguu6FTttZrxj4PgOEA29TZNQezL
ThjFP2g5EVD6y2W84xAFwD0UfnTF1/SfzA4D6kq2f3ZSo20BFrSrbBOLIDGRrD9t
PblUUUDXD0FQ2pANu07xMISgCBZHH9B/GFyVebQ5P8BmszXLJ1XyZa7PUVsCjihm
Xm3vxB3R4mzU+sTFT8+mYE0vJ3ClumScmH3862Yk3OtVmqtw+aRlEWfd2hcR6mHR
9vkVn/BxS+oc2wVXgrJamCstKuqD58D8kW+FNUYDvINYf7BBwiA7Sf3P1pYF6SoO
ql32zJSjkw/C0DRY9hxl+bjxTcAYgfUFZbNHB4FUn5Ca79VOlRTk75Q6juO865JN
MKTjdtMIugpyQjNSf4576aCiU1C5CQcamDag+tYSAURp4i63D0Agq6Qe3eBG/zIP
1v+qUJwslttNTETHC2t+/h68jJyKl5DyA+GK7aKs/M2q4/szTtQkplNdckc/PuFK
4BGDeVad+n+sNosA29k7LXBGwRd7mGYxAWzT5hpI/WK98yWy2RYe3DaXHO/vMS24
xGbd045JEaa6qM3GxHj75jaVLuFFraySuMjYYqrq1WYV+WVyzjyp8hlmpZzNYzY3
AeMocUtsXpd09Q1pq0GVN+IAyoyRMjyoR2pGae1RJPrLlNCxarmYEXJGBFyunCem
vAo5cuSyEvyPJ5WjLkqUZujNeb+kRiobkAHSzuhjzs+WMYGWGmsi0wxU9K9Z8XG1
uWuY9ZpVWbF7PbU8vntTAyRin5m2QLYteWDNSHdS/yikMwlCtgu3RjMX0S7mGqmf
Wfiy8CuUAvUIfzkXgys2RJduuuqL8zuIluzuRTRqsOyo6GmjmZvWdgZd3x+tKmOY
0RNkXxzV6lr8UFhKFm4227GBUYQZKR4pUtulcPRlDV1wb0vE3gCejZKWbuNEaj4N
v2rZKrX9NI5cCeZ6vM7fuk+l6e64Zb6e75X2jLcHEt+wHWkiGoiC8g++k8Lu6h6n
wCsc5BsX1LB8XoeRR6Ebgiss1glngDv0huW8s8Uyc/Wk7wLxGt8J/maSx6mF0RDY
4gJGgF7yUM3vZvPtkOtP8jlsA47TerPV8oYqS5oSpyHo4Kd+uvMZgzKWpmeEQahj
8diuRSOfSNp827ep1rdUYL1rukiQAkexqomJeUk4UqOxi43aDVzcBFHrIVUDNXfU
i7V2UxJP9yMnDicTQ0uBN+Xm/d3kh9zEXYfAQi2K+3KyUEu44SZ4k0fDx1vV08yc
ZD42a5aZGoRkEIqT4KU4URtzxV21QvgjiSdirEiGeJZE9AWxBsNl+QpXnx73ViGC
dxputI/z/csJt99TPATLNIO2gY2zOpRNFXQ61IqWqUdznlMliM8zkX/uzcGpbyUg
J+aO0mzETXWSqDsLuo8Ak225mlaQpxeeBj6tvsA7pbuv0lAdPpJO8j9rCxz8w3zg
T91Adn/t5nwj5Wu/56/LRbh1bcF9ebv3k78qG5bYEUTrT7/8yuQAbUH1pdfspxlq
6t4YAEw9e71yAz0OVRqFg1dKHcSa8W/DywA+8h4DQmV6unyV5459Ve0xSo0WOWko
GJTc63vlqJCBK/1DIpBOeajsfHaRzVPnt28kD4gxFQsLckgKVsYT4FhAPj1MsiZx
6OogKC0EBbhguY3AoQCAXk8pDJaszh15tlZEYnCIDw==
=kBLK
-----END PGP MESSAGE-----
